X: 30774
T: Orphan, The
R: jig
M: 6/8
K: Eminor
|:B,EE EDE|GFG AGA|B/^c/dB AFA|BEE EDB,|
A,2A, EDE|GFG AGA|B/^c/dB AFA|BEE E3:|
|:e2e dBA|GAB dBd|efe dBA|BEE EDB,|
E3 EDE|GFG AGA|B/^c/dB AFA|BEE E3:|

